X: 12817
T: Feeding The Birds
R: reel
M: 4/4
K: Gmajor
GF|:DGGA B2 ag|egdc BGG F|DGGA B2 AG|BdcA G2 GF:|
fgag fdd e|effd cA ag|fgag fddA|defa ~g3 a|bgag {a}gfd e|fded cAGF|DGGA B2 AG|BdcA G2 GF||

